X:1
T:Luigi Cherubini 1760-1842 
T:Cours de contrepoint et de fugue 
T:Contrepoints à deux voix
%%score { 1 | 2 }
L:1/8
M:2/2
K:C
V:1 treble nm="Piano, Piano" snm="Pia."
V:2 bass 
V:1
"^1" G8 | A8 | c8 | c8 | B8 | G8 | A8 | c8 | e8 | d8 | d8 | c8 | d8 | B8 | c8 | A8 | B8 | c8 |] %18
[M:2/2][K:treble]"^2" C8 | F8 | E8 | A,8 | D8 | E8 | F8 | E8 | C8 | G8 | ^F8 | A8 | G8 | G8 | E8 | %33
 F8 | D8 | C8 |][M:2/2][K:treble]"^3" z4 c4 | G4 A4 | B4 c4 | B4 A4 | G4 F4 | E4 F4 | G4 E4 | %43
 A4 F4 | G4 C4 | D4 E4 | F4 G4 | A4 B4 | c8 |][M:2/2][K:treble]"^4" C8 | E8 | D8 | G8 | E8 | A8 | %55
 G8 | F8 | E8 | A8 | F8 | D8 | C8 |][M:2/2][K:treble]"^5" z2 c2 B2 A2 | G2 C2 D2 E2 | F2 G2 F2 E2 | %65
 D2 G2 A2 B2 | c2 d2 e2 d2 | c2 A2 E2 ^F2 | G2 A2 B2 c2 | d2 c2 A2 B2 | c2 _B2 A2 G2 | %71
 F2 E2 F2 G2 | A2 F2 D2 E2 | F2 G2 A2 B2 | c8 |][M:2/2][K:treble]"^6" C8 | E8 | D8 | G8 | E8 | A8 | %81
 G8 | F8 | E8 | A8 | F8 | D8 | C8 |][M:2/2][K:treble]"^7" z4 c4- | c4 B4- | B4 c4- | c4 A4- | %92
 A4 d4- | d4 c4- | c4 A4- | A4 G4- | G4 ^F4- | F4 G4- | G4 A4- | A4 B4- | B4 c4- | c4 A4- | %102
 A4 d4- | d4 c4- | c4 B4 | c8 |][M:2/2]"^8" C8 | D8 | E8 | F8 | D8 | E8 | C8 | B,8 | D8 | B,8 | %116
 C8 | D8 | E8 | F8 | D8 | E8 | D8 | C8 |][M:2/2][K:treble]"^9" z4 C4- | C4 D2 E2 | F4 D4- | %127
 D4 E2 F2 | G4 c4 | C2 D2 E2 ^F2 | G2 A2 B2 c2 | d4 c4 | B4 d4- | d2 G2 c2 _B2 | A4 c4- | %135
 c2 BA B2 A2 | G2 c2 e4- | e4 d4- | d2 cB c4- | c4 B4 | c8 |][K:treble]"^10" C8 | F8 | D8 | G8 | %145
 E8 | A8 | G8 | ^F8 | G8 | E8 | F8 | D8 | E8 | F8 | E8 | D8 | C8 |] %158
V:2
 C,8 | F,8 | E,8 | A,,8 | D,8 | E,8 | F,8 | E,8 | C,8 | G,8 | ^F,8 | A,8 | G,8 | G,8 | E,8 | F,8 | %16
 D,8 | C,8 |][M:2/2] C,8 | A,,8 | C,8 | F,8 | F,8 | E,8 | D,8 | C,8 | E,8 | B,,8 | D,8 | D,8 | %30
 E,8 | B,,8 | C,8 | A,,8 | B,,8 | C,8 |][M:2/2] C,8 | E,8 | D,8 | G,8 | E,8 | A,8 | G,8 | F,8 | %44
 E,8 | A,8 | F,8 | D,8 | C,8 |][M:2/2] z4 C4 | A,4 G,4 | F,4 G,4 | E,4 B,,4 | C,4 G,4 | F,4 D,4 | %55
 E,4 G,4 | A,4 B,4 | C4 A,4 | F,4 G,4 | A,4 F,4 | G,4 B,4 | C8 |][M:2/2] C,8 | E,8 | D,8 | G,8 | %66
 E,8 | A,8 | G,8 | F,8 | E,8 | A,8 | F,8 | D,8 | C,8 |][M:2/2] z2 C,2 C2 B,2 | A,2 C2 A,2 G,2 | %77
 F,2 D,2 G,2 F,2 | E,2 D,2 C,2 B,,2 | C,2 G,2 A,2 G,2 | ^F,2 D,2 E,2 F,2 | G,2 A,2 B,2 C2 | %82
 D2 D,2 A,2 B,2 | C2 B,2 A,2 G,2 | F,2 E,2 D,2 C,2 | D,2 E,2 D,2 C,2 | B,,2 G,,2 A,,2 B,,2 | C,8 |] %88
[M:2/2] C,8 | D,8 | E,8 | F,8 | D,8 | E,8 | C,8 | B,,8 | D,8 | B,,8 | C,8 | D,8 | E,8 | F,8 | D,8 | %103
 E,8 | D,8 | C,8 |][M:2/2][K:bass] z4 C4- | C4 B,4 | G,4 A,4- | A,4 F,4- | F,4 G,4- | G,4 C4- | %112
 C4 A,4- | A,4 G,4- | G,4 ^F,4 | G,4 E,4- | E,4 F,4- | F,4 G,4- | G,4 A,4- | A,4 F,4- | F,4 G,4- | %121
 G,4 C4- | C4 B,4 | C8 |][M:2/2][K:bass] C,8 | F,8 | D,8 | G,8 | E,8 | A,8 | G,8 | ^F,8 | G,8 | %133
 E,8 | F,8 | D,8 | E,8 | F,8 | E,8 | D,8 | C,8 |][K:bass] z4 C4 | A,4 F,2 D,2 | G,4 B,4- | %144
 B,2 G,2 C4- | C2 B,2 A,2 G,2 | ^F,2 A,2 D2 C2 | B,4 E4- | E4 ^D4 | E2 D2 C2 B,2 | C2 D2 C2 B,2 | %151
 A,4 D2 C2 | B,2 C2 B,2 A,2 | G,4 C2 B,2 | A,2 B,C D4- | D2 G,2 C4- | C4 B,4 | C8 |] %158

